symbolic/48x48/places/folder-grey-git.svg

<svg xmlns="http://www.w3.org/2000/svg" width="48" height="48" version="1">
 <rect style="opacity:0.2" width="40" height="26" x="4" y="17" rx="2" ry="2"/>
 <path style="fill:#727272" d="M 4,34 C 4,35.108 4.892,36 6,36 H 42 C 43.108,36 44,35.108 44,34 V 12 C 44,10.892 43.108,10 42,10 H 24 C 21,10 20,6 17,6 H 6 C 4.892,6 4,6.892 4,8"/>
 <rect style="opacity:0.2" width="40" height="26" x="4" y="15" rx="2" ry="2"/>
 <rect style="fill:#b2bfd9" width="36" height="16" x="6" y="13" rx="2" ry="2"/>
 <rect style="fill:#8e8e8e" width="40" height="26" x="4" y="16" rx="2" ry="2"/>
 <path style="opacity:0.1;fill:#f4f4f7" d="M 6,6 C 4.892,6 4,6.892 4,8 V 9 C 4,7.892 4.892,7 6,7 H 17 C 20,7 21,11 24,11 H 42 C 43.108,11 44,11.892 44,13 V 12 C 44,10.892 43.108,10 42,10 H 24 C 21,10 20,6 17,6 Z"/>
 <path style="fill:#323232" d="M 19.707,22 19,22.708 20.408,24.117 A 2.5005,2.5027 0 0 0 19.998,25.488 2.5005,2.5027 0 0 0 21.999,27.94 V 32.05 A 2.5005,2.5027 0 0 0 19.999,34.497 2.5005,2.5027 0 0 0 22.5,37 2.5005,2.5027 0 0 0 25,34.497 2.5005,2.5027 0 0 0 23,32.046 V 27.936 A 2.5005,2.5027 0 0 0 23.869,27.582 L 25.41,29.125 A 2.5005,2.5027 0 0 0 25,30.493 2.5005,2.5027 0 0 0 27.501,32.996 2.5005,2.5027 0 0 0 30.002,30.492 2.5005,2.5027 0 0 0 27.502,27.989 2.5005,2.5027 0 0 0 26.114,28.412 L 24.58,26.875 A 2.5005,2.5027 0 0 0 25,25.487 2.5005,2.5027 0 0 0 22.5,22.984 2.5005,2.5027 0 0 0 21.114,23.407 L 19.708,22 Z"/>
</svg>

<svg xmlns="http://www.w3.org/2000/svg" width="48" height="48" version="1"><rect style="opacity:.2" width="40" height="26" x="4" y="17" rx="2" ry="2"/><path style="fill:#727272" d="M4 34c0 1.108.892 2 2 2h36c1.108 0 2-.892 2-2V12c0-1.108-.892-2-2-2H24c-3 0-4-4-7-4H6c-1.108 0-2 .892-2 2"/><rect style="opacity:.2" width="40" height="26" x="4" y="15" rx="2" ry="2"/><rect style="fill:#b2bfd9" width="36" height="16" x="6" y="13" rx="2" ry="2"/><rect style="fill:#8e8e8e" width="40" height="26" x="4" y="16" rx="2" ry="2"/><path style="opacity:.1;fill:#f4f4f7" d="M6 6c-1.108 0-2 .892-2 2v1c0-1.108.892-2 2-2h11c3 0 4 4 7 4h18c1.108 0 2 .892 2 2v-1c0-1.108-.892-2-2-2H24c-3 0-4-4-7-4z"/><path style="fill:#323232" d="m19.707 22-.707.708 1.408 1.409a2.5 2.503 0 0 0-.41 1.371 2.5 2.503 0 0 0 2.001 2.452v4.11a2.5 2.503 0 0 0-2 2.447A2.5 2.503 0 0 0 22.5 37a2.5 2.503 0 0 0 2.5-2.503 2.5 2.503 0 0 0-2-2.451v-4.11a2.5 2.503 0 0 0 .869-.354l1.541 1.543a2.5 2.503 0 0 0-.41 1.368 2.5 2.503 0 0 0 2.501 2.503 2.5 2.503 0 0 0 2.501-2.504 2.5 2.503 0 0 0-2.5-2.503 2.5 2.503 0 0 0-1.388.423l-1.534-1.537a2.5 2.503 0 0 0 .42-1.388 2.5 2.503 0 0 0-2.5-2.503 2.5 2.503 0 0 0-1.386.423L19.708 22z"/></svg>
